img/shops-pros__02.svg

<svg width="60" height="54" viewBox="0 0 60 54" fill="none" xmlns="http://www.w3.org/2000/svg">
<path d="M58.8281 13.2779H52.061C52.1614 10.7053 51.9364 8.39456 51.3896 6.39452C50.5792 3.43015 48.7724 1.38265 46.2966 0.627727C46.2159 0.603469 44.2905 0.0426095 41.5479 0.608039C39.2075 1.0905 35.7748 2.51444 32.4334 6.52003C31.6688 6.20011 30.8307 6.02339 29.9527 6.02339H29.8118C28.986 6.02339 28.1955 6.1796 27.4684 6.46425C24.1335 2.49101 20.7122 1.08066 18.3806 0.60382C15.6484 0.0453049 13.7319 0.603469 13.6462 0.62925C11.1761 1.38253 9.36914 3.42991 8.55855 6.39452C8.01176 8.39503 7.78688 10.7056 7.8873 13.2779H1.17188C0.524766 13.2779 0 13.8025 0 14.4498V23.8319C0 24.4791 0.524766 25.0038 1.17188 25.0038H3.29426V49.4859C3.29426 51.7784 5.15941 53.6436 7.45195 53.6436H52.548C54.8406 53.6436 56.7057 51.7784 56.7057 49.4859V25.0037H58.8281C59.4752 25.0037 60 24.479 60 23.8318V14.4496C60 13.8025 59.4752 13.2779 58.8281 13.2779ZM41.8883 2.93175C44.0381 2.45948 45.5466 2.85195 45.628 2.87409C47.8786 3.56573 48.7873 5.76312 49.1289 7.01257C49.6114 8.77776 49.8109 10.926 49.7146 13.2779H36.4016C36.4195 13.1144 36.4314 12.95 36.437 12.7846L41.2058 10.3774C41.7837 10.0857 42.0156 9.38093 41.7239 8.80308C41.4323 8.22546 40.7276 7.99343 40.1497 8.28499L36.0595 10.3497C35.7115 9.37648 35.1403 8.50976 34.4084 7.81237C36.6664 5.16745 39.1788 3.52718 41.8883 2.93175ZM37.2654 22.6599H22.7346V15.6215H37.2654V22.6599ZM29.9527 8.36714C32.238 8.36714 34.0972 10.2472 34.0972 12.558C34.0972 12.8009 34.0766 13.0414 34.0357 13.2778H25.7288C25.6877 13.0414 25.6672 12.8009 25.6672 12.558C25.6672 10.2472 27.5264 8.36714 29.8118 8.36714H29.9527ZM10.8192 7.01257C11.1609 5.76312 12.0697 3.56562 14.3202 2.87409C14.4023 2.85183 15.9034 2.46148 18.0435 2.92812C20.7258 3.51312 23.216 5.12257 25.4578 7.71722C24.697 8.41191 24.1001 9.28554 23.7333 10.2714L19.7985 8.28511C19.2207 7.99355 18.5159 8.22534 18.2242 8.80319C17.9325 9.38093 18.1644 10.0858 18.7421 10.3775L23.3248 12.6908C23.3286 12.8876 23.3414 13.0836 23.3627 13.278H10.2336C10.1372 10.9265 10.3366 8.778 10.8192 7.01257ZM2.34375 15.6216H20.3909V22.66H2.34375V15.6216ZM5.63801 49.4859V25.0037H23.2137V51.2998H7.45195C6.45176 51.2998 5.63801 50.4861 5.63801 49.4859ZM54.362 49.4859C54.362 50.4861 53.5484 51.2998 52.548 51.2998H36.7863V39.5683C36.7863 38.9211 36.2616 38.3964 35.6145 38.3964C34.9673 38.3964 34.4426 38.9211 34.4426 39.5683V51.2997H25.5574V25.0037H34.4426V28.9732C34.4426 29.6204 34.9673 30.145 35.6145 30.145C36.2616 30.145 36.7863 29.6204 36.7863 28.9732V25.0037H54.362V49.4859ZM57.6562 22.6599H39.6091V15.6215H57.6562V22.6599Z" fill="#F04E23"/>
<path d="M35.6155 35.4214C35.1241 35.4214 34.68 35.1036 34.5131 34.6437C34.3487 34.1906 34.4909 33.6679 34.8574 33.3562C35.2407 33.0302 35.8063 32.9881 36.2339 33.2539C36.6442 33.5089 36.8577 34.005 36.7639 34.478C36.6568 35.0187 36.1672 35.4214 35.6155 35.4214Z" fill="#F04E23"/>
</svg>

<svg width="60" height="54" fill="none" xmlns="http://www.w3.org/2000/svg"><path d="M58.828 13.278h-6.767c.1-2.573-.125-4.883-.671-6.883-.81-2.965-2.618-5.012-5.093-5.767-.081-.025-2.006-.585-4.75-.02-2.34.483-5.772 1.906-9.114 5.912a6.412 6.412 0 00-2.48-.497h-.141a6.43 6.43 0 00-2.344.441c-3.334-3.973-6.756-5.383-9.087-5.86-2.733-.559-4.65 0-4.735.025-2.47.754-4.277 2.8-5.087 5.766-.547 2-.772 4.31-.672 6.883H1.172C.525 13.278 0 13.802 0 14.45v9.382c0 .647.525 1.172 1.172 1.172h2.122v24.482a4.162 4.162 0 004.158 4.158h45.096a4.162 4.162 0 004.158-4.158V25.004h2.122c.647 0 1.172-.525 1.172-1.172V14.45c0-.647-.525-1.172-1.172-1.172zM41.888 2.932c2.15-.473 3.659-.08 3.74-.058 2.25.692 3.16 2.89 3.5 4.139.483 1.765.683 3.913.587 6.265H36.402c.017-.164.03-.328.035-.493l4.769-2.408a1.172 1.172 0 10-1.056-2.092l-4.09 2.065a6.557 6.557 0 00-1.652-2.538c2.258-2.645 4.77-4.285 7.48-4.88zM37.265 22.66h-14.53v-7.04h14.53v7.039zM29.953 8.367c2.285 0 4.144 1.88 4.144 4.191 0 .243-.02.483-.061.72h-8.307a4.2 4.2 0 01-.062-.72c0-2.31 1.86-4.19 4.145-4.19h.14zM10.819 7.013c.342-1.25 1.25-3.447 3.501-4.139.082-.022 1.583-.413 3.724.054 2.682.585 5.172 2.195 7.414 4.79a6.56 6.56 0 00-1.725 2.553L19.8 8.285a1.172 1.172 0 00-1.057 2.092l4.583 2.314c.004.197.016.393.038.587h-13.13c-.096-2.351.104-4.5.586-6.265zm-8.475 8.609H20.39v7.038H2.344v-7.038zm3.294 33.864V25.004h17.576V51.3H7.452c-1 0-1.814-.814-1.814-1.814zm48.724 0c0 1-.814 1.814-1.814 1.814H36.786V39.568a1.172 1.172 0 00-2.343 0V51.3h-8.886V25.004h8.886v3.97a1.172 1.172 0 002.343 0v-3.97h17.576v24.482zm3.294-26.826H39.61v-7.04h18.047v7.039z" fill="#F04E23"/><path d="M35.615 35.421c-.49 0-.935-.317-1.102-.777a1.18 1.18 0 01.344-1.288 1.181 1.181 0 011.377-.102c.41.255.624.751.53 1.224-.107.54-.597.943-1.149.943z" fill="#F04E23"/></svg>
